packages/core/src/svgs/taki.svg

<svg width="24" height="24" viewBox="0 0 24 24" fill="none" xmlns="http://www.w3.org/2000/svg">
<g clip-path="url(#clip0_31_19573)">
<path d="M0 0H24V24H0V0Z" fill="#091D40"/>
<path d="M6.74139 6.60857C6.82562 6.428 6.9593 6.27499 7.12693 6.16728C7.29456 6.05957 7.48929 6.00157 7.68853 6H18.2271C19.0114 6 19.5257 6.85714 19.17 7.58571L17.5757 10.8986C17.4042 11.25 17.0957 11.55 16.7142 11.5714H14.8585L12.8228 18.9214C12.7637 19.1466 12.6323 19.3461 12.4488 19.4893C12.2653 19.6326 12.0399 19.7116 11.8071 19.7143H8.92711C8.23282 19.7143 7.72711 19.0286 7.90711 18.3343C8.422 16.3475 8.98214 14.3727 9.58711 12.4114C10.0328 11.0271 11.4557 10.7143 12.8142 10.7143H13.7485C13.5 10.4057 13.0714 10.2857 12.4714 10.2857H6.62996C5.84568 10.2857 5.33139 9.53143 5.68711 8.80286L6.74139 6.60857ZM14.8585 10.7143H16.4228C16.5092 10.714 16.5934 10.6877 16.6645 10.6388C16.7356 10.5898 16.7903 10.5205 16.8214 10.44L17.9957 7.44C18.0207 7.37517 18.0296 7.30523 18.0215 7.23621C18.0135 7.16719 17.9888 7.10116 17.9496 7.0438C17.9104 6.98644 17.8578 6.93948 17.7964 6.90696C17.735 6.87445 17.6666 6.85735 17.5971 6.85714H7.97568C7.89107 6.85757 7.80847 6.88302 7.73831 6.93031C7.66814 6.97759 7.61354 7.04459 7.58139 7.12286L6.87425 8.83714C6.84757 8.90207 6.83726 8.97256 6.8442 9.04241C6.85114 9.11226 6.87514 9.17933 6.91408 9.23773C6.95301 9.29614 7.0057 9.34409 7.0675 9.37736C7.12931 9.41064 7.19834 9.42822 7.26853 9.42857H12.4714C13.8 9.42857 14.5628 10.1014 14.8585 10.7143ZM13.7142 11.5714H12.6428C11.7557 11.5714 10.8857 11.8286 10.59 12.7543C10.0757 14.3614 9.44139 16.8557 9.06425 18.3086C8.99568 18.5786 9.20139 18.8571 9.48425 18.8571H11.4728C11.67 18.8571 11.8371 18.7114 11.8885 18.5271L13.7142 11.5714Z" fill="url(#paint0_linear_31_19573)"/>
</g>
<defs>
<linearGradient id="paint0_linear_31_19573" x1="7.94568" y1="7.09714" x2="12.75" y2="20.1429" gradientUnits="userSpaceOnUse">
<stop stop-color="#FDC85B"/>
<stop offset="1" stop-color="#A811AA"/>
</linearGradient>
<clipPath id="clip0_31_19573">
<rect width="24" height="24" fill="white"/>
</clipPath>
</defs>
</svg>

<svg xmlns="http://www.w3.org/2000/svg" width="24" height="24" fill="none" viewBox="0 0 24 24"><g clip-path="url(#a)"><path fill="#091D40" d="M0 0h24v24H0z"/><path fill="url(#b)" d="M6.741 6.609A1.05 1.05 0 0 1 7.69 6h10.538c.784 0 1.299.857.943 1.586l-1.594 3.313c-.172.351-.48.651-.862.672H14.86l-2.036 7.35a1.06 1.06 0 0 1-1.016.793h-2.88c-.694 0-1.2-.685-1.02-1.38a135 135 0 0 1 1.68-5.923c.446-1.384 1.869-1.697 3.227-1.697h.934c-.248-.308-.677-.428-1.277-.428H6.63c-.784 0-1.299-.755-.943-1.483zm8.118 4.105h1.564a.43.43 0 0 0 .398-.274l1.175-3a.428.428 0 0 0-.399-.583H7.976a.43.43 0 0 0-.395.266l-.707 1.714a.43.43 0 0 0 .395.592h5.202c1.329 0 2.092.672 2.387 1.285m-1.145.857h-1.071c-.887 0-1.757.258-2.053 1.183-.514 1.607-1.149 4.102-1.526 5.555a.442.442 0 0 0 .42.548h1.989a.44.44 0 0 0 .415-.33z"/></g><defs><linearGradient id="b" x1="7.946" x2="12.75" y1="7.097" y2="20.143" gradientUnits="userSpaceOnUse"><stop stop-color="#FDC85B"/><stop offset="1" stop-color="#A811AA"/></linearGradient><clipPath id="a"><path fill="#fff" d="M0 0h24v24H0z"/></clipPath></defs></svg>
